X:1
T:Trifle Not
T:Trifle Not
T:Hart Pease Danks
T:Frances Jane (Fanny) Crosby, 1901
T:Public Domain Courtesy of the Cyber Hymnal™
C:Hart Pease Danks
Z:Public Domain
Z:Courtesy of the Cyber Hymnal™
%%score ( 1 2 ) ( 3 4 )
L:1/8
Q:1/4=90
M:2/4
K:Eb
V:1 treble 
V:2 treble 
V:3 bass 
V:4 bass 
V:1
 EE [EG][EG] | [EF][DF] E2 | [EG][EG] [GB][GB] | [FA][FA] [EG]2 | [Ec][Ec] [EB][EB] | %5
w: 1.~Tri- fle not your|time a- way,|Come to Je- sus,|come to- day,|For to- mor- row|
w: 2.~If you slight His|of- fered grace|And re- fuse to|seek His face,|Tho’ He lin- ger|
w: 3.~Has the world the|balm to heal|What your life per-|chance may feel?|Trust it not; no|
 [DA][DA] [EG]2 | [DF][DF] [FB][Fd] | [Ec]>[DB] [DB]2 ||"^Refrain" [DB][Dc] [DF] (G/F/) | %9
w: you may be|In a vast e-|ter- ni- ty.||
w: at your heart,|You may grieve Him|to de- part.|While with you the *|
w: more de- lay,|Come to Je- sus,|come to- day.||
 E[EA] [EG]2 | [FG][FG] [EG][Ec] | [Ec][D=B] [Ec]2 | [Ec][Ec] [EB][EG] | [DA]A [EG]2 | %14
w: |||||
w: Spir- it pleads,|While for you He|in- ter- cedes,|Now the voice of|love o- bey,|
w: |||||
 [EA][Ec] [EB]E | [EG]>[DF] !fermata!E2 |] %16
w: ||
w: Come to Je- sus,|come to- day.|
w: ||
V:2
 EE x2 | x2 E2 | x4 | x4 | x4 | x4 | x4 | x4 || x3 D | E x3 | x4 | x4 | x4 | x (E/F/) x2 | x3 E | %15
 x2 E2 |] %16
V:3
 [E,G,][E,G,] [E,B,][E,B,] | [B,,A,][B,,A,] [E,G,]2 | [E,B,][E,B,] [E,B,][E,B,] | B,B, [E,B,]2 | %4
 [A,,A,][A,,A,] [E,G,][E,G,] | [F,B,][B,,B,] [E,B,]2 | [F,B,][F,B,] [D,B,][B,,B,] | %7
 [F,=A,]>[F,B,] [B,,B,]2 || [B,,A,][B,,A,] [B,,A,] (B,/A,/) | [E,G,][E,C] [E,B,]2 | %10
 [D,=B,][G,B,] [C,C][C,G,] | G,[G,,G,] [C,G,]2 | A,A, [E,G,][E,B,] | B,B, B,2 | %14
 [C,A,][=A,,^G,] [B,,G,][C,=A,] | [B,,B,]>[B,,A,] !fermata![E,G,]2 |] %16
V:4
 x4 | x4 | x4 | (D,/B,,/) (C,/D,/) x2 | x4 | x4 | x4 | x4 || x3 B,, | x4 | x4 | G, x3 | %12
 (A,,/B,,/) (C,/D,/) x2 | (F,/B,,/) (C,/D,/) (E,_D,) | x4 | x4 |] %16

